svg/u1f9ff.svg

<svg viewBox="0 0 128 128" xmlns="http://www.w3.org/2000/svg">
  <g>
    <g>
      <path d="M6.22,61.05C9.72,21.94,45.89,4,65.89,4c26.66,0,54.29,22.01,55.96,60 c2.85,33.01-22.82,60-55.96,60S2.65,101.02,6.22,61.05z" fill="#1851ED"/>
      <path d="M117.51,53.87c-1.63-5.5-6.38-11.11-12.46-10.91c-6.76,0.54-11.87,5.32-17.22,8.98 c-15.95,10.89-34.27,18.29-53.3,21.55c-4.18,0.72-17.9,2.94-19.68,10.84c-1.18,5.24,0.92,11.77,5.02,15.82 c8.86,8.74,16.03,12.23,20.08,13.61c1.23,0.42,2.28-0.96,1.57-2.04c-1.23-1.86-2.5-4.03-2.22-4.69 c1.67-3.91,10.88,1.96,16.32,2.92c12.24,2.15,16.94,0.06,25.03-2.44c2.28-0.7,6.56-2.71,8.6-1.59c2.37,1.3-2.43,6.64-5.54,9.74 c-0.7,0.7,0.05,1.85,0.98,1.52c9.41-3.36,29.59-18.13,33.44-42.26C119.22,68.21,119.66,60.5,117.51,53.87z" opacity="0.77" fill="#002691"/>
      <path d="M31.1,64.92c0-18.77,15.86-37.16,32.12-37.16s30.91,15.5,33.5,37.16 c2.24,18.76-15.67,37.39-36.23,35.13C39.66,97.76,31.1,83.7,31.1,64.92z" fill="#F5F5F5"/>
      <ellipse cx="64" cy="64" rx="19.96" ry="20.68" fill="#5AC7F0"/>
      <ellipse cx="64" cy="64" rx="9.16" ry="8.53" fill="#212121" transform="matrix(0.4369 -0.8995 0.8995 0.4369 -21.5318 93.6025)"/>
    </g>
    <path d="M26.93,35.09c-2.21-0.45-5.87-4.73,1.97-11.37c8.65-7.33,14.12-6.89,15.36-5.84 c1.99,1.67,0.57,4.15-3.51,7.08C34.11,29.71,32.91,36.3,26.93,35.09z" opacity="0.55" fill="#00CFFF"/>
    <path d="M21.8,36.42c5.37,0.73,0.01,8.34-1.95,10.05c-0.37,0.32-2.17,1.45-3.69,0.88 s-1.07-3.62-0.82-4.76C15.98,39.72,18.19,35.93,21.8,36.42z" opacity="0.55" fill="#00CFFF"/>
  </g>
</svg>

<svg viewBox="0 0 128 128" xmlns="http://www.w3.org/2000/svg">
  <defs/>
  <path d="M6.22,61.05 C9.72,21.94 45.89,4 65.89,4 C92.55,4 120.18,26.01 121.85,64 C124.7,97.01 99.03,124 65.89,124 C32.75,124 2.65,101.02 6.22,61.05 Z" fill="#1851ED"/>
  <path d="M117.51,53.87 C115.88,48.37 111.13,42.76 105.05,42.96 C98.29,43.5 93.18,48.28 87.83,51.94 C71.88,62.83 53.56,70.23 34.53,73.49 C30.35,74.21 16.63,76.43 14.85,84.33 C13.67,89.57 15.77,96.1 19.87,100.15 C28.73,108.89 35.9,112.38 39.95,113.76 C41.18,114.18 42.23,112.8 41.52,111.72 C40.29,109.86 39.02,107.69 39.3,107.03 C40.97,103.12 50.18,108.99 55.62,109.95 C67.86,112.1 72.56,110.01 80.65,107.51 C82.93,106.81 87.21,104.8 89.25,105.92 C91.62,107.22 86.82,112.56 83.71,115.66 C83.01,116.36 83.76,117.51 84.69,117.18 C94.1,113.82 114.28,99.05 118.13,74.92 C119.22,68.21 119.66,60.5 117.51,53.87 Z" fill="#002691" opacity="0.77"/>
  <path d="M31.1,64.92 C31.1,46.15 46.96,27.76 63.22,27.76 C79.48,27.76 94.13,43.26 96.72,64.92 C98.96,83.68 81.05,102.31 60.49,100.05 C39.66,97.76 31.1,83.7 31.1,64.92 Z" fill="#F5F5F5"/>
  <path d="M83.96,64 A19.96 20.68 0 1 1 44.04,64 A19.96 20.68 0 1 1 83.96,64 Z" fill="#5AC7F0"/>
  <path d="M68,55.757 C72.237,57.815 73.881,63.172 71.671,67.723 C69.46,72.273 64.233,74.294 59.996,72.236 C55.758,70.177 54.115,64.82 56.325,60.269 C58.535,55.719 63.762,53.698 68,55.757 Z" fill="#212121"/>
  <path d="M26.93,35.09 C24.72,34.64 21.06,30.36 28.9,23.72 C37.55,16.39 43.02,16.83 44.26,17.88 C46.25,19.55 44.83,22.03 40.75,24.96 C34.11,29.71 32.91,36.3 26.93,35.09 Z" fill="#00CFFF" opacity="0.55"/>
  <path d="M21.8,36.42 C27.17,37.15 21.81,44.76 19.85,46.47 C19.48,46.79 17.68,47.92 16.16,47.35 C14.64,46.78 15.09,43.73 15.34,42.59 C15.98,39.72 18.19,35.93 21.8,36.42 Z" fill="#00CFFF" opacity="0.55"/>
</svg>
